X: 1
T: Biddy The Bold
M: 6/8
L: 1/8
R: jig
K: Amaj
EAc e2F|ecA a2f|ecA EAc|dcd BAF|
EAc e2f|ecA a2f|ecA EAc|bag a3:|
f3 fec|eaa a2f|ecf ecf|eab cde|
f3 fec|eaa a2f|ecA EAc|BAG A3:|
